svg/fluentui-system-icons/ic_fluent_page_fit_20_filled.svg

<svg width="20" height="20" viewBox="0 0 20 20" fill="none" xmlns="http://www.w3.org/2000/svg">
<path d="M4 4C2.89543 4 2 4.89543 2 6V14C2 15.1046 2.89543 16 4 16H16C17.1046 16 18 15.1046 18 14V6C18 4.89543 17.1046 4 16 4H4ZM5.5 6H6.5C6.77614 6 7 6.22386 7 6.5C7 6.77614 6.77614 7 6.5 7H5.5C5.22386 7 5 7.22386 5 7.5V8.5C5 8.77614 4.77614 9 4.5 9C4.22386 9 4 8.77614 4 8.5V7.5C4 6.67157 4.67157 6 5.5 6ZM13.5 6H14.5C15.3284 6 16 6.67157 16 7.5V8.5C16 8.77614 15.7761 9 15.5 9C15.2239 9 15 8.77614 15 8.5V7.5C15 7.22386 14.7761 7 14.5 7H13.5C13.2239 7 13 6.77614 13 6.5C13 6.22386 13.2239 6 13.5 6ZM5 11.5V12.5C5 12.7761 5.22386 13 5.5 13H6.5C6.77614 13 7 13.2239 7 13.5C7 13.7761 6.77614 14 6.5 14H5.5C4.67157 14 4 13.3284 4 12.5V11.5C4 11.2239 4.22386 11 4.5 11C4.77614 11 5 11.2239 5 11.5ZM16 11.5V12.5C16 13.3284 15.3284 14 14.5 14H13.5C13.2239 14 13 13.7761 13 13.5C13 13.2239 13.2239 13 13.5 13H14.5C14.7761 13 15 12.7761 15 12.5V11.5C15 11.2239 15.2239 11 15.5 11C15.7761 11 16 11.2239 16 11.5Z" fill="#212121"/>
</svg>

<svg xmlns="http://www.w3.org/2000/svg" width="20" height="20"><path d="M4 4a2 2 0 0 0-2 2v8a2 2 0 0 0 2 2h12a2 2 0 0 0 2-2V6a2 2 0 0 0-2-2H4Zm1.5 2h1a.5.5 0 0 1 0 1h-1a.5.5 0 0 0-.5.5v1a.5.5 0 0 1-1 0v-1A1.5 1.5 0 0 1 5.5 6Zm8 0h1A1.5 1.5 0 0 1 16 7.5v1a.5.5 0 0 1-1 0v-1a.5.5 0 0 0-.5-.5h-1a.5.5 0 0 1 0-1ZM5 11.5v1a.5.5 0 0 0 .5.5h1a.5.5 0 0 1 0 1h-1A1.5 1.5 0 0 1 4 12.5v-1a.5.5 0 0 1 1 0Zm11 0v1a1.5 1.5 0 0 1-1.5 1.5h-1a.5.5 0 0 1 0-1h1a.5.5 0 0 0 .5-.5v-1a.5.5 0 0 1 1 0Z"/></svg>
